rospo-icon-theme-classic-common/48x48/places/folder-green-java.svg

<svg height="48" width="48" xmlns="http://www.w3.org/2000/svg"><rect height="26" opacity=".2" rx="2" width="40" x="4" y="17"/><path d="m4 34c0 1.108.892 2 2 2h36c1.108 0 2-.892 2-2v-22c0-1.108-.892-2-2-2h-20v-2c0-1.108-.892-2-2-2h-14c-1.108 0-2 .892-2 2" fill="#60924b"/><rect height="26" opacity=".2" rx="2" width="40" x="4" y="15"/><rect fill="#e4e4e4" height="16" rx="2" width="36" x="6" y="13"/><rect fill="#87b158" height="26" rx="2" width="40" x="4" y="16"/><path d="m6 6c-1.108 0-2 .892-2 2v1c0-1.108.892-2 2-2h14c1.108 0 2 .892 2 2v-1c0-1.108-.892-2-2-2zm16 4v1h20c1.108 0 2 .892 2 2v-1c0-1.108-.892-2-2-2z" fill="#fff" opacity=".1"/><path d="m22.172 21s .824.465.242 1.688c-.881 1.842.813 2.263.813 2.263s-.538-.432.179-1.953c.793-1.685-1.234-1.998-1.234-1.998zm3.199 1.84s-1.642.63-.584 2.351c.7 1.141-.076 1.707-.076 1.707s1.985-.563 1.027-2.138c-.86-1.424-.367-1.92-.367-1.92zm-4.728.047s-1.438 1.095-.014 2.441c.941.896.324 1.672.324 1.672s1.783-1.133.494-2.371c-1.163-1.117-.804-1.742-.804-1.742zm.31 4.113h-3.953l2 8h8l .275-1.098c.233.058.474.098.725.098 1.657 0 3-1.343 3-3 0-1.406-.97-2.577-2.275-2.902l.275-1.098zm7.531 2.062a1 2 15 0 1  .034.006 1 2 15 0 1  .449 2.192 1 2 15 0 1 -1.451 1.678z" fill="#2f3e1f"/></svg>

<svg xmlns="http://www.w3.org/2000/svg" width="48" height="48" version="1">
 <rect style="opacity:0.2" width="40" height="26" x="4" y="17" rx="2" ry="2"/>
 <path style="fill:#60924b" d="M 4,34 C 4,35.108 4.892,36 6,36 H 42 C 43.108,36 44,35.108 44,34 V 12 C 44,10.892 43.108,10 42,10 H 22 V 8 C 22,6.892 21.108,6 20,6 H 6 C 4.892,6 4,6.892 4,8"/>
 <rect style="opacity:0.2" width="40" height="26" x="4" y="15" rx="2" ry="2"/>
 <rect style="fill:#dcdcdc" width="36" height="16" x="6" y="13" rx="2" ry="2"/>
 <rect style="fill:#87b158" width="40" height="26" x="4" y="16" rx="2" ry="2"/>
 <path style="opacity:0.1;fill:#ffffff" d="M 6,6 C 4.892,6 4,6.892 4,8 V 9 C 4,7.892 4.892,7 6,7 H 20 C 21.108,7 22,7.892 22,9 V 8 C 22,6.892 21.108,6 20,6 Z M 22,10 V 11 H 42 C 43.108,11 44,11.892 44,13 V 12 C 44,10.892 43.108,10 42,10 Z"/>
 <path style="fill:#2f3e1f" d="M 22.172,21 C 22.172,21 22.996,21.465 22.414,22.688 21.533,24.53 23.227,24.951 23.227,24.951 23.227,24.951 22.689,24.519 23.406,22.998 24.199,21.313 22.172,21 22.172,21 Z M 25.371,22.84 C 25.371,22.84 23.729,23.47 24.787,25.191 25.487,26.332 24.711,26.898 24.711,26.898 24.711,26.898 26.696,26.335 25.738,24.76 24.878,23.336 25.371,22.84 25.371,22.84 Z M 20.643,22.887 C 20.643,22.887 19.205,23.982 20.629,25.328 21.57,26.224 20.953,27 20.953,27 20.953,27 22.736,25.867 21.447,24.629 20.284,23.512 20.643,22.887 20.643,22.887 Z M 20.953,27 H 17 L 19,35 H 27 L 27.275,33.902 C 27.508,33.96 27.749,34 28,34 29.657,34 31,32.657 31,31 31,29.594 30.03,28.423 28.725,28.098 L 29,27 Z M 28.484,29.062 A 1,2 15 0 1 28.518,29.068 1,2 15 0 1 28.967,31.26 1,2 15 0 1 27.516,32.938 Z"/>
</svg>
